!!!OTL: When the Saints Go Marching In
!!!COM: Black, James
!!!LYR: Purvis, Katherine
!!!ODT: unknown
!!!YOR: Your First Fake Book
!!!YOY: 1997
!!!AST: Spiritual
!!!YEC: Brian Luke, 2001
**kern	**harm
*k[]	*k[]
*M4/4	*M4/4
*C:	*C:
*>A	*>A
4c	.
4e	.
4f	.
=1	=1
[1g	I
=2	=2
4g]	.
4c	.
4e	.
4f	.
=3	=3
[1g	.
=4	=4
4g]	.
4c	.
4e	.
4f	.
=5	=5
2g	.
2e	.
=6	=6
2c	.
2e	.
=7	=7
[1d	V7
=8	=8
4d]	.
4e	.
4e	.
4d	.
=9	=9
2.c	I
4c	.
=10	=10
2e	V7/IV
4g	.
4g	.
=11	=11
4g	IV
[2.f	.
=12	=12
2f]	iv
4e	.
4f	.
=13	=13
2g	I
2e	.
=14	=14
2c	.
2d	V7
=15	=15
[1c	I;
=16	=16
4c]	.
*-	*-
